icon/fa/tags.svg

<svg xmlns="http://www.w3.org/2000/svg" viewBox="0 0 512 512"><!--! Font Awesome Free 6.1.2 by @fontawesome - https://fontawesome.com License - https://fontawesome.com/license/free (Icons: CC BY 4.0, Fonts: SIL OFL 1.1, Code: MIT License) Copyright 2022 Fonticons, Inc.--><path d="M472.8 168.4c52.3 53 52.3 138.2 0 191.2l-112 113.3c-9.3 9.4-24.5 9.5-33.9.2-9.5-9.3-9.5-24.5-.2-34l111.9-113.2c33.9-34.3 33.9-89.5 0-123.8L310.9 72.87c-9.4-9.43-9.3-24.62.2-33.94 9.4-9.32 24.6-9.23 33 .2L472.8 168.4zM0 229.5V80c0-26.51 21.49-48 48-48h149.5c17 0 33.2 6.74 45.2 18.75l168 167.95c25 25 25 65.6 0 90.6L277.3 442.7c-25 25-65.6 25-90.6 0l-167.95-168C6.743 262.7 0 246.5 0 229.5zM112 112c-17.67 0-32 14.3-32 32s14.33 32 32 32c17.7 0 32-14.3 32-32s-14.3-32-32-32z"/></svg>

<svg xmlns="http://www.w3.org/2000/svg" viewBox="0 0 512 512" height="1em" width="1em">
<!--! Font Awesome Free 6.1.2 by @fontawesome - https://fontawesome.com License - https://fontawesome.com/license/free (Icons: CC BY 4.0, Fonts: SIL OFL 1.1, Code: MIT License) Copyright 2022 Fonticons, Inc.-->
  <path d="M472.8 168.4C525.1 221.4 525.1 306.6 472.8 359.6L360.8 472.9C351.5 482.3 336.3 482.4 326.9 473.1C317.4 463.8 317.4 448.6 326.7 439.1L438.6 325.9C472.5 291.6 472.5 236.4 438.6 202.1L310.9 72.87C301.5 63.44 301.6 48.25 311.1 38.93C320.5 29.61 335.7 29.7 344.1 39.13L472.8 168.4zM.0003 229.5V80C.0003 53.49 21.49 32 48 32H197.5C214.5 32 230.7 38.74 242.7 50.75L410.7 218.7C435.7 243.7 435.7 284.3 410.7 309.3L277.3 442.7C252.3 467.7 211.7 467.7 186.7 442.7L18.75 274.7C6.743 262.7 0 246.5 0 229.5L.0003 229.5zM112 112C94.33 112 80 126.3 80 144C80 161.7 94.33 176 112 176C129.7 176 144 161.7 144 144C144 126.3 129.7 112 112 112z"/>
</svg>
